images/logo.svg

<svg width="160" height="19" viewBox="0 0 160 19" fill="none" xmlns="http://www.w3.org/2000/svg">
<path d="M11.0742 13.6875C11.0742 13.2891 11.0117 12.9375 10.8867 12.6328C10.7695 12.3203 10.5586 12.0391 10.2539 11.7891C9.95703 11.5391 9.54297 11.3008 9.01172 11.0742C8.48828 10.8477 7.82422 10.6172 7.01953 10.3828C6.17578 10.1328 5.41406 9.85547 4.73438 9.55078C4.05469 9.23828 3.47266 8.88281 2.98828 8.48438C2.50391 8.08594 2.13281 7.62891 1.875 7.11328C1.61719 6.59766 1.48828 6.00781 1.48828 5.34375C1.48828 4.67969 1.625 4.06641 1.89844 3.50391C2.17188 2.94141 2.5625 2.45312 3.07031 2.03906C3.58594 1.61719 4.19922 1.28906 4.91016 1.05469C5.62109 0.820312 6.41406 0.703125 7.28906 0.703125C8.57031 0.703125 9.65625 0.949219 10.5469 1.44141C11.4453 1.92578 12.1289 2.5625 12.5977 3.35156C13.0664 4.13281 13.3008 4.96875 13.3008 5.85938H11.0508C11.0508 5.21875 10.9141 4.65234 10.6406 4.16016C10.3672 3.66016 9.95312 3.26953 9.39844 2.98828C8.84375 2.69922 8.14062 2.55469 7.28906 2.55469C6.48438 2.55469 5.82031 2.67578 5.29688 2.91797C4.77344 3.16016 4.38281 3.48828 4.125 3.90234C3.875 4.31641 3.75 4.78906 3.75 5.32031C3.75 5.67969 3.82422 6.00781 3.97266 6.30469C4.12891 6.59375 4.36719 6.86328 4.6875 7.11328C5.01562 7.36328 5.42969 7.59375 5.92969 7.80469C6.4375 8.01562 7.04297 8.21875 7.74609 8.41406C8.71484 8.6875 9.55078 8.99219 10.2539 9.32812C10.957 9.66406 11.5352 10.043 11.9883 10.4648C12.4492 10.8789 12.7891 11.3516 13.0078 11.8828C13.2344 12.4062 13.3477 13 13.3477 13.6641C13.3477 14.3594 13.207 14.9883 12.9258 15.5508C12.6445 16.1133 12.2422 16.5938 11.7188 16.9922C11.1953 17.3906 10.5664 17.6992 9.83203 17.918C9.10547 18.1289 8.29297 18.2344 7.39453 18.2344C6.60547 18.2344 5.82812 18.125 5.0625 17.9062C4.30469 17.6875 3.61328 17.3594 2.98828 16.9219C2.37109 16.4844 1.875 15.9453 1.5 15.3047C1.13281 14.6562 0.949219 13.9062 0.949219 13.0547H3.19922C3.19922 13.6406 3.3125 14.1445 3.53906 14.5664C3.76562 14.9805 4.07422 15.3242 4.46484 15.5977C4.86328 15.8711 5.3125 16.0742 5.8125 16.207C6.32031 16.332 6.84766 16.3945 7.39453 16.3945C8.18359 16.3945 8.85156 16.2852 9.39844 16.0664C9.94531 15.8477 10.3594 15.5352 10.6406 15.1289C10.9297 14.7227 11.0742 14.2422 11.0742 13.6875ZM22.5469 2.44922L16.8984 18H14.5898L21.0938 0.9375H22.582L22.5469 2.44922ZM27.2812 18L21.6211 2.44922L21.5859 0.9375H23.0742L29.6016 18H27.2812ZM26.9883 11.6836V13.5352H17.4023V11.6836H26.9883ZM41.4375 0.9375H43.6875V12.4805C43.6875 13.7617 43.4023 14.8281 42.832 15.6797C42.2617 16.5312 41.5039 17.1719 40.5586 17.6016C39.6211 18.0234 38.6016 18.2344 37.5 18.2344C36.3438 18.2344 35.2969 18.0234 34.3594 17.6016C33.4297 17.1719 32.6914 16.5312 32.1445 15.6797C31.6055 14.8281 31.3359 13.7617 31.3359 12.4805V0.9375H33.5742V12.4805C33.5742 13.3711 33.7383 14.1055 34.0664 14.6836C34.3945 15.2617 34.8516 15.6914 35.4375 15.9727C36.0312 16.2539 36.7188 16.3945 37.5 16.3945C38.2891 16.3945 38.9766 16.2539 39.5625 15.9727C40.1562 15.6914 40.6172 15.2617 40.9453 14.6836C41.2734 14.1055 41.4375 13.3711 41.4375 12.4805V0.9375ZM51.8555 18H48.293L48.3164 16.1602H51.8555C53.0742 16.1602 54.0898 15.9062 54.9023 15.3984C55.7148 14.8828 56.3242 14.1641 56.7305 13.2422C57.1445 12.3125 57.3516 11.2266 57.3516 9.98438V8.94141C57.3516 7.96484 57.2344 7.09766 57 6.33984C56.7656 5.57422 56.4219 4.92969 55.9688 4.40625C55.5156 3.875 54.9609 3.47266 54.3047 3.19922C53.6562 2.92578 52.9102 2.78906 52.0664 2.78906H48.2227V0.9375H52.0664C53.1836 0.9375 54.2031 1.125 55.125 1.5C56.0469 1.86719 56.8398 2.40234 57.5039 3.10547C58.1758 3.80078 58.6914 4.64453 59.0508 5.63672C59.4102 6.62109 59.5898 7.73047 59.5898 8.96484V9.98438C59.5898 11.2188 59.4102 12.332 59.0508 13.3242C58.6914 14.3086 58.1719 15.1484 57.4922 15.8438C56.8203 16.5391 56.0078 17.0742 55.0547 17.4492C54.1094 17.8164 53.043 18 51.8555 18ZM49.5 0.9375V18H47.2383V0.9375H49.5ZM65.4141 0.9375V18H63.1523V0.9375H65.4141Z" fill="#C3A67A"/>
<path d="M80.3672 16.1602V18H71.332V16.1602H80.3672ZM71.7891 0.9375V18H69.5273V0.9375H71.7891ZM79.1719 8.27344V10.1133H71.332V8.27344H79.1719ZM80.25 0.9375V2.78906H71.332V0.9375H80.25ZM84.6328 0.9375L88.7344 7.47656L92.8359 0.9375H95.4727L90.082 9.38672L95.6016 18H92.9414L88.7344 11.332L84.5273 18H81.8672L87.3867 9.38672L81.9961 0.9375H84.6328ZM104.508 11.3086H99.9492V9.46875H104.508C105.391 9.46875 106.105 9.32812 106.652 9.04688C107.199 8.76562 107.598 8.375 107.848 7.875C108.105 7.375 108.234 6.80469 108.234 6.16406C108.234 5.57812 108.105 5.02734 107.848 4.51172C107.598 3.99609 107.199 3.58203 106.652 3.26953C106.105 2.94922 105.391 2.78906 104.508 2.78906H100.477V18H98.2148V0.9375H104.508C105.797 0.9375 106.887 1.16016 107.777 1.60547C108.668 2.05078 109.344 2.66797 109.805 3.45703C110.266 4.23828 110.496 5.13281 110.496 6.14062C110.496 7.23438 110.266 8.16797 109.805 8.94141C109.344 9.71484 108.668 10.3047 107.777 10.7109C106.887 11.1094 105.797 11.3086 104.508 11.3086ZM126.492 8.92969V10.0078C126.492 11.2891 126.332 12.4375 126.012 13.4531C125.691 14.4688 125.23 15.332 124.629 16.043C124.027 16.7539 123.305 17.2969 122.461 17.6719C121.625 18.0469 120.688 18.2344 119.648 18.2344C118.641 18.2344 117.715 18.0469 116.871 17.6719C116.035 17.2969 115.309 16.7539 114.691 16.043C114.082 15.332 113.609 14.4688 113.273 13.4531C112.938 12.4375 112.77 11.2891 112.77 10.0078V8.92969C112.77 7.64844 112.934 6.50391 113.262 5.49609C113.598 4.48047 114.07 3.61719 114.68 2.90625C115.289 2.1875 116.012 1.64062 116.848 1.26562C117.691 0.890625 118.617 0.703125 119.625 0.703125C120.664 0.703125 121.602 0.890625 122.438 1.26562C123.281 1.64062 124.004 2.1875 124.605 2.90625C125.215 3.61719 125.68 4.48047 126 5.49609C126.328 6.50391 126.492 7.64844 126.492 8.92969ZM124.254 10.0078V8.90625C124.254 7.89062 124.148 6.99219 123.938 6.21094C123.734 5.42969 123.434 4.77344 123.035 4.24219C122.637 3.71094 122.148 3.30859 121.57 3.03516C121 2.76172 120.352 2.625 119.625 2.625C118.922 2.625 118.285 2.76172 117.715 3.03516C117.152 3.30859 116.668 3.71094 116.262 4.24219C115.863 4.77344 115.555 5.42969 115.336 6.21094C115.117 6.99219 115.008 7.89062 115.008 8.90625V10.0078C115.008 11.0312 115.117 11.9375 115.336 12.7266C115.555 13.5078 115.867 14.168 116.273 14.707C116.688 15.2383 117.176 15.6406 117.738 15.9141C118.309 16.1875 118.945 16.3242 119.648 16.3242C120.383 16.3242 121.035 16.1875 121.605 15.9141C122.176 15.6406 122.656 15.2383 123.047 14.707C123.445 14.168 123.746 13.5078 123.949 12.7266C124.152 11.9375 124.254 11.0312 124.254 10.0078ZM146.449 16.2188V18H135.281V16.4414L140.871 10.2188C141.559 9.45312 142.09 8.80469 142.465 8.27344C142.848 7.73438 143.113 7.25391 143.262 6.83203C143.418 6.40234 143.496 5.96484 143.496 5.51953C143.496 4.95703 143.379 4.44922 143.145 3.99609C142.918 3.53516 142.582 3.16797 142.137 2.89453C141.691 2.62109 141.152 2.48438 140.52 2.48438C139.762 2.48438 139.129 2.63281 138.621 2.92969C138.121 3.21875 137.746 3.625 137.496 4.14844C137.246 4.67188 137.121 5.27344 137.121 5.95312H134.953C134.953 4.99219 135.164 4.11328 135.586 3.31641C136.008 2.51953 136.633 1.88672 137.461 1.41797C138.289 0.941406 139.309 0.703125 140.52 0.703125C141.598 0.703125 142.52 0.894531 143.285 1.27734C144.051 1.65234 144.637 2.18359 145.043 2.87109C145.457 3.55078 145.664 4.34766 145.664 5.26172C145.664 5.76172 145.578 6.26953 145.406 6.78516C145.242 7.29297 145.012 7.80078 144.715 8.30859C144.426 8.81641 144.086 9.31641 143.695 9.80859C143.312 10.3008 142.902 10.7852 142.465 11.2617L137.895 16.2188H146.449ZM159.949 16.2188V18H148.781V16.4414L154.371 10.2188C155.059 9.45312 155.59 8.80469 155.965 8.27344C156.348 7.73438 156.613 7.25391 156.762 6.83203C156.918 6.40234 156.996 5.96484 156.996 5.51953C156.996 4.95703 156.879 4.44922 156.645 3.99609C156.418 3.53516 156.082 3.16797 155.637 2.89453C155.191 2.62109 154.652 2.48438 154.02 2.48438C153.262 2.48438 152.629 2.63281 152.121 2.92969C151.621 3.21875 151.246 3.625 150.996 4.14844C150.746 4.67188 150.621 5.27344 150.621 5.95312H148.453C148.453 4.99219 148.664 4.11328 149.086 3.31641C149.508 2.51953 150.133 1.88672 150.961 1.41797C151.789 0.941406 152.809 0.703125 154.02 0.703125C155.098 0.703125 156.02 0.894531 156.785 1.27734C157.551 1.65234 158.137 2.18359 158.543 2.87109C158.957 3.55078 159.164 4.34766 159.164 5.26172C159.164 5.76172 159.078 6.26953 158.906 6.78516C158.742 7.29297 158.512 7.80078 158.215 8.30859C157.926 8.81641 157.586 9.31641 157.195 9.80859C156.812 10.3008 156.402 10.7852 155.965 11.2617L151.395 16.2188H159.949Z" fill="#3B3B3B"/>
</svg>

<svg width="160" height="19" fill="none" xmlns="http://www.w3.org/2000/svg"><path d="M11.074 13.688c0-.399-.062-.75-.187-1.055-.117-.313-.328-.594-.633-.844-.297-.25-.711-.488-1.242-.715a17.347 17.347 0 00-1.992-.691 18.323 18.323 0 01-2.286-.832 7.984 7.984 0 01-1.746-1.067 4.208 4.208 0 01-1.113-1.37c-.258-.516-.387-1.106-.387-1.77 0-.664.137-1.278.41-1.84A4.305 4.305 0 013.07 2.039a5.68 5.68 0 011.84-.984C5.621.82 6.414.703 7.29.703c1.28 0 2.366.246 3.257.738.898.485 1.582 1.121 2.05 1.91.47.782.704 1.618.704 2.508h-2.25c0-.64-.137-1.207-.41-1.699-.274-.5-.688-.89-1.243-1.172-.554-.289-1.257-.433-2.109-.433-.805 0-1.469.12-1.992.363-.524.242-.914.57-1.172.984A2.69 2.69 0 003.75 5.32c0 .36.074.688.223.985.156.289.394.558.715.808.328.25.742.48 1.242.692.508.21 1.113.414 1.816.61.969.273 1.805.577 2.508.913.703.336 1.281.715 1.734 1.137a3.89 3.89 0 011.02 1.418c.226.523.34 1.117.34 1.781 0 .695-.141 1.324-.422 1.887a4.103 4.103 0 01-1.207 1.441c-.524.399-1.153.707-1.887.926-.727.21-1.539.316-2.437.316a8.43 8.43 0 01-2.332-.328 6.948 6.948 0 01-2.075-.984A5.158 5.158 0 011.5 15.305c-.367-.649-.55-1.399-.55-2.25H3.2c0 .586.112 1.09.34 1.511a3 3 0 00.925 1.032 4.32 4.32 0 001.348.609 6.595 6.595 0 001.582.188c.789 0 1.457-.11 2.003-.329.547-.218.961-.53 1.243-.937.289-.406.433-.887.433-1.441zm11.473-11.24L16.898 18H14.59L21.094.937h1.488l-.035 1.512zM27.28 18L21.62 2.45 21.585.937h1.488L29.602 18h-2.32zm-.293-6.316v1.851h-9.586v-1.851h9.586zM41.438.938h2.25V12.48c0 1.282-.286 2.348-.856 3.2a5.341 5.341 0 01-2.273 1.922c-.938.421-1.957.632-3.059.632-1.156 0-2.203-.21-3.14-.632a5.14 5.14 0 01-2.215-1.922c-.54-.852-.81-1.918-.81-3.2V.938h2.24V12.48c0 .891.163 1.625.491 2.204a3.079 3.079 0 001.371 1.289c.594.28 1.282.421 2.063.421.79 0 1.477-.14 2.063-.421a3.066 3.066 0 001.382-1.29c.328-.578.492-1.312.492-2.203V.938zM51.855 18h-3.562l.023-1.84h3.54c1.218 0 2.234-.254 3.046-.762.813-.515 1.422-1.234 1.828-2.156.415-.93.622-2.015.622-3.258V8.941c0-.976-.118-1.843-.352-2.601-.234-.766-.578-1.41-1.031-1.934A4.358 4.358 0 0054.305 3.2c-.649-.273-1.395-.41-2.239-.41h-3.843V.937h3.843c1.118 0 2.137.188 3.059.563a6.575 6.575 0 012.379 1.605c.672.696 1.187 1.54 1.547 2.532.36.984.539 2.093.539 3.328v1.02c0 1.234-.18 2.347-.54 3.34-.359.984-.878 1.823-1.558 2.519a6.804 6.804 0 01-2.437 1.605c-.946.367-2.012.551-3.2.551zM49.5.937V18h-2.262V.937H49.5zm15.914 0V18h-2.262V.937h2.262z" fill="#C3A67A"/><path d="M80.367 16.16V18h-9.035v-1.84h9.035zM71.79.937V18h-2.262V.937h2.262zm7.383 7.336v1.84h-7.84v-1.84h7.84zM80.25.938v1.851h-8.918V.937h8.918zm4.383 0l4.101 6.539 4.102-6.54h2.637l-5.391 8.45L95.602 18h-2.66l-4.208-6.668L84.527 18h-2.66l5.52-8.613-5.39-8.45h2.636zm19.875 10.37h-4.559v-1.84h4.559c.883 0 1.597-.14 2.144-.421.547-.281.946-.672 1.196-1.172.257-.5.386-1.07.386-1.71 0-.587-.129-1.138-.386-1.653-.25-.516-.649-.93-1.196-1.242-.547-.32-1.261-.48-2.144-.48h-4.031V18h-2.262V.937h6.293c1.289 0 2.379.223 3.269.668.891.446 1.567 1.063 2.028 1.852.461.781.691 1.676.691 2.684 0 1.093-.23 2.027-.691 2.8-.461.774-1.137 1.364-2.028 1.77-.89.398-1.98.598-3.269.598zm21.984-2.378v1.078c0 1.281-.16 2.43-.48 3.445-.321 1.016-.782 1.879-1.383 2.59a6 6 0 01-2.168 1.629c-.836.375-1.773.562-2.813.562-1.007 0-1.933-.187-2.777-.562a6.253 6.253 0 01-2.18-1.629c-.609-.711-1.082-1.574-1.418-2.59-.335-1.015-.503-2.164-.503-3.445V8.93c0-1.282.164-2.426.492-3.434.336-1.016.808-1.879 1.418-2.59a6.07 6.07 0 012.168-1.64c.843-.375 1.769-.563 2.777-.563 1.039 0 1.977.188 2.813.563a5.94 5.94 0 012.167 1.64c.61.711 1.075 1.574 1.395 2.59.328 1.008.492 2.152.492 3.434zm-2.238 1.078V8.906c0-1.015-.106-1.914-.316-2.695-.204-.781-.504-1.438-.903-1.969a3.89 3.89 0 00-1.465-1.207c-.57-.273-1.218-.41-1.945-.41-.703 0-1.34.137-1.91.41a4.037 4.037 0 00-1.453 1.207c-.399.531-.707 1.188-.926 1.969-.219.781-.328 1.68-.328 2.695v1.102c0 1.023.109 1.93.328 2.719.219.78.531 1.441.937 1.98a4.16 4.16 0 001.465 1.207c.571.274 1.207.41 1.91.41.735 0 1.387-.137 1.957-.41a3.822 3.822 0 001.442-1.207c.398-.539.699-1.2.902-1.98.203-.79.305-1.696.305-2.72zm22.195 6.21V18h-11.168v-1.559l5.59-6.222c.688-.766 1.219-1.414 1.594-1.946.383-.539.648-1.02.797-1.441a3.82 3.82 0 00.234-1.312 3.27 3.27 0 00-.351-1.524 2.64 2.64 0 00-1.008-1.101c-.446-.274-.985-.41-1.617-.41-.758 0-1.391.148-1.899.445a2.74 2.74 0 00-1.125 1.218c-.25.524-.375 1.125-.375 1.805h-2.168c0-.96.211-1.84.633-2.637.422-.796 1.047-1.43 1.875-1.898.828-.477 1.848-.715 3.059-.715 1.078 0 2 .192 2.765.574.766.375 1.352.907 1.758 1.594.414.68.621 1.477.621 2.39 0 .5-.086 1.009-.258 1.524a7.72 7.72 0 01-.691 1.524 11.79 11.79 0 01-1.02 1.5c-.383.492-.793.976-1.23 1.453l-4.57 4.957h8.554zm13.5 0V18h-11.168v-1.559l5.59-6.222c.688-.766 1.219-1.414 1.594-1.946.383-.539.648-1.02.797-1.441a3.82 3.82 0 00.234-1.312 3.27 3.27 0 00-.351-1.524 2.64 2.64 0 00-1.008-1.101c-.446-.274-.985-.41-1.617-.41-.758 0-1.391.148-1.899.445a2.74 2.74 0 00-1.125 1.218c-.25.524-.375 1.125-.375 1.805h-2.168c0-.96.211-1.84.633-2.637.422-.796 1.047-1.43 1.875-1.898.828-.477 1.848-.715 3.059-.715 1.078 0 2 .192 2.765.574.766.375 1.352.907 1.758 1.594.414.68.621 1.477.621 2.39 0 .5-.086 1.009-.258 1.524a7.72 7.72 0 01-.691 1.524 11.79 11.79 0 01-1.02 1.5c-.383.492-.793.976-1.23 1.453l-4.57 4.957h8.554z" fill="#3B3B3B"/></svg>
